( Made using CamBam - http://www.cambam.co.uk )
( ms20_vcf_panel 12/13/2015 2:35:05 PM )
( T3 : 3.175 )
G21 G90 G64 G40
G0 Z3.0
( T3 : 3.175 )
T3 M6
( mounting )
G17
M3 S1000
G0 X18.5785 Y3.6776
G0 Z3.0
G0 X18.591 Y3.6776
G1 F1000.0 Z0.0
G2 F2000.0 X18.5723 Y3.6668 Z-0.0333 I-0.0125 J0.0
G2 Y3.6885 Z-0.0667 I0.0063 J0.0108
G2 X18.591 Y3.6776 Z-0.1 I0.0063 J-0.0108
G2 X18.5723 Y3.6668 Z-0.1333 I-0.0125 J0.0
G2 Y3.6885 Z-0.1667 I0.0063 J0.0108
G2 X18.591 Y3.6776 Z-0.2 I0.0063 J-0.0108
G2 X18.5723 Y3.6668 Z-0.2333 I-0.0125 J0.0
G2 Y3.6885 Z-0.2667 I0.0063 J0.0108
G2 X18.591 Y3.6776 Z-0.3 I0.0063 J-0.0108
G2 X18.5723 Y3.6668 Z-0.3333 I-0.0125 J0.0
G2 Y3.6885 Z-0.3667 I0.0063 J0.0108
G2 X18.591 Y3.6776 Z-0.4 I0.0063 J-0.0108
G2 X18.5723 Y3.6668 Z-0.4333 I-0.0125 J0.0
G2 Y3.6885 Z-0.4667 I0.0063 J0.0108
G2 X18.591 Y3.6776 Z-0.5 I0.0063 J-0.0108
G2 X18.5723 Y3.6668 Z-0.5333 I-0.0125 J0.0
G2 Y3.6885 Z-0.5667 I0.0063 J0.0108
G2 X18.591 Y3.6776 Z-0.6 I0.0063 J-0.0108
G2 X18.5723 Y3.6668 Z-0.6333 I-0.0125 J0.0
G2 Y3.6885 Z-0.6667 I0.0063 J0.0108
G2 X18.591 Y3.6776 Z-0.7 I0.0063 J-0.0108
G2 X18.5723 Y3.6668 Z-0.7333 I-0.0125 J0.0
G2 Y3.6885 Z-0.7667 I0.0063 J0.0108
G2 X18.591 Y3.6776 Z-0.8 I0.0063 J-0.0108
G2 X18.5723 Y3.6668 Z-0.8333 I-0.0125 J0.0
G2 Y3.6885 Z-0.8667 I0.0063 J0.0108
G2 X18.591 Y3.6776 Z-0.9 I0.0063 J-0.0108
G2 X18.5723 Y3.6668 Z-0.9333 I-0.0125 J0.0
G2 Y3.6885 Z-0.9667 I0.0063 J0.0108
G2 X18.591 Y3.6776 Z-1.0 I0.0063 J-0.0108
G2 X18.5723 Y3.6668 Z-1.0333 I-0.0125 J0.0
G2 Y3.6885 Z-1.0667 I0.0063 J0.0108
G2 X18.591 Y3.6776 Z-1.1 I0.0063 J-0.0108
G2 X18.5723 Y3.6668 Z-1.1333 I-0.0125 J0.0
G2 Y3.6885 Z-1.1667 I0.0063 J0.0108
G2 X18.591 Y3.6776 Z-1.2 I0.0063 J-0.0108
G2 X18.5723 Y3.6668 Z-1.2333 I-0.0125 J0.0
G2 Y3.6885 Z-1.2667 I0.0062 J0.0108
G2 X18.591 Y3.6776 Z-1.3 I0.0063 J-0.0108
G2 X18.5723 Y3.6668 Z-1.3333 I-0.0125 J0.0
G2 Y3.6885 Z-1.3667 I0.0062 J0.0108
G2 X18.591 Y3.6776 Z-1.4 I0.0063 J-0.0108
G2 X18.5723 Y3.6668 Z-1.4333 I-0.0125 J0.0
G2 Y3.6885 Z-1.4667 I0.0062 J0.0108
G2 X18.591 Y3.6776 Z-1.5 I0.0063 J-0.0108
G2 X18.5723 Y3.6668 Z-1.5333 I-0.0125 J0.0
G2 Y3.6885 Z-1.5667 I0.0062 J0.0108
G2 X18.591 Y3.6776 Z-1.6 I0.0063 J-0.0108
G2 X18.5723 Y3.6668 Z-1.6333 I-0.0125 J0.0
G2 Y3.6885 Z-1.6667 I0.0062 J0.0108
G2 X18.591 Y3.6776 Z-1.7 I0.0063 J-0.0108
G2 X18.5723 Y3.6668 Z-1.7333 I-0.0125 J0.0
G2 Y3.6885 Z-1.7667 I0.0062 J0.0108
G2 X18.591 Y3.6776 Z-1.8 I0.0063 J-0.0108
G2 X18.5723 Y3.6668 Z-1.8333 I-0.0125 J0.0
G2 Y3.6885 Z-1.8667 I0.0062 J0.0108
G2 X18.591 Y3.6776 Z-1.9 I0.0063 J-0.0108
G2 X18.5723 Y3.6668 Z-1.9333 I-0.0125 J0.0
G2 Y3.6885 Z-1.9667 I0.0062 J0.0108
G2 X18.591 Y3.6776 Z-2.0 I0.0063 J-0.0108
G2 X18.5723 Y3.6668 Z-2.0333 I-0.0125 J0.0
G2 Y3.6885 Z-2.0667 I0.0062 J0.0108
G2 X18.591 Y3.6776 Z-2.1 I0.0063 J-0.0108
G2 X18.5723 Y3.6668 Z-2.1333 I-0.0125 J0.0
G2 Y3.6885 Z-2.1667 I0.0062 J0.0108
G2 X18.591 Y3.6776 Z-2.2 I0.0063 J-0.0108
G2 X18.5723 Y3.6668 Z-2.2333 I-0.0125 J0.0
G2 Y3.6885 Z-2.2667 I0.0063 J0.0108
G2 X18.591 Y3.6776 Z-2.3 I0.0063 J-0.0108
G2 X18.5723 Y3.6668 Z-2.3333 I-0.0125 J0.0
G2 Y3.6885 Z-2.3667 I0.0063 J0.0108
G2 X18.591 Y3.6776 Z-2.4 I0.0063 J-0.0108
G2 X18.5723 Y3.6668 Z-2.4333 I-0.0125 J0.0
G2 Y3.6885 Z-2.4667 I0.0063 J0.0108
G2 X18.591 Y3.6776 Z-2.5 I0.0062 J-0.0108
G2 X18.5723 Y3.6668 Z-2.5333 I-0.0125 J0.0
G2 Y3.6885 Z-2.5667 I0.0063 J0.0108
G2 X18.591 Y3.6776 Z-2.6 I0.0062 J-0.0108
G2 X18.5723 Y3.6668 Z-2.6333 I-0.0125 J0.0
G2 Y3.6885 Z-2.6667 I0.0063 J0.0108
G2 X18.591 Y3.6776 Z-2.7 I0.0062 J-0.0108
G2 X18.5723 Y3.6668 Z-2.7333 I-0.0125 J0.0
G2 Y3.6885 Z-2.7667 I0.0063 J0.0108
G2 X18.591 Y3.6776 Z-2.8 I0.0062 J-0.0108
G2 X18.5723 Y3.6668 Z-2.8333 I-0.0125 J0.0
G2 Y3.6885 Z-2.8667 I0.0063 J0.0108
G2 X18.591 Y3.6776 Z-2.9 I0.0062 J-0.0108
G2 X18.5723 Y3.6668 Z-2.9333 I-0.0125 J0.0
G2 Y3.6885 Z-2.9667 I0.0063 J0.0108
G2 X18.591 Y3.6776 Z-3.0 I0.0062 J-0.0108
G2 X18.5723 Y3.6668 Z-3.0333 I-0.0125 J0.0
G2 Y3.6885 Z-3.0667 I0.0063 J0.0108
G2 X18.591 Y3.6776 Z-3.1 I0.0062 J-0.0108
G2 X18.5723 Y3.6668 Z-3.1333 I-0.0125 J0.0
G2 Y3.6885 Z-3.1667 I0.0063 J0.0108
G2 X18.591 Y3.6776 Z-3.2 I0.0062 J-0.0108
G2 X18.5723 Y3.6668 I-0.0125 J0.0
G2 Y3.6885 I0.0063 J0.0108
G2 X18.591 Y3.6776 I0.0062 J-0.0108
G0 Z3.0
G0 X19.6498 Y23.5237
G1 F1000.0 Z0.0
G2 F2000.0 X19.6311 Y23.5129 Z-0.0333 I-0.0125 J0.0
G2 Y23.5345 Z-0.0667 I0.0062 J0.0108
G2 X19.6498 Y23.5237 Z-0.1 I0.0063 J-0.0108
G2 X19.6311 Y23.5129 Z-0.1333 I-0.0125 J0.0
G2 Y23.5345 Z-0.1667 I0.0062 J0.0108
G2 X19.6498 Y23.5237 Z-0.2 I0.0063 J-0.0108
G2 X19.6311 Y23.5129 Z-0.2333 I-0.0125 J0.0
G2 Y23.5345 Z-0.2667 I0.0062 J0.0108
G2 X19.6498 Y23.5237 Z-0.3 I0.0063 J-0.0108
G2 X19.6311 Y23.5129 Z-0.3333 I-0.0125 J0.0
G2 Y23.5345 Z-0.3667 I0.0062 J0.0108
G2 X19.6498 Y23.5237 Z-0.4 I0.0063 J-0.0108
G2 X19.6311 Y23.5129 Z-0.4333 I-0.0125 J0.0
G2 Y23.5345 Z-0.4667 I0.0062 J0.0108
G2 X19.6498 Y23.5237 Z-0.5 I0.0063 J-0.0108
G2 X19.6311 Y23.5129 Z-0.5333 I-0.0125 J0.0
G2 Y23.5345 Z-0.5667 I0.0062 J0.0108
G2 X19.6498 Y23.5237 Z-0.6 I0.0063 J-0.0108
G2 X19.6311 Y23.5129 Z-0.6333 I-0.0125 J0.0
G2 Y23.5345 Z-0.6667 I0.0062 J0.0108
G2 X19.6498 Y23.5237 Z-0.7 I0.0063 J-0.0108
G2 X19.6311 Y23.5129 Z-0.7333 I-0.0125 J0.0
G2 Y23.5345 Z-0.7667 I0.0062 J0.0108
G2 X19.6498 Y23.5237 Z-0.8 I0.0063 J-0.0108
G2 X19.6311 Y23.5129 Z-0.8333 I-0.0125 J0.0
G2 Y23.5345 Z-0.8667 I0.0062 J0.0108
G2 X19.6498 Y23.5237 Z-0.9 I0.0063 J-0.0108
G2 X19.6311 Y23.5129 Z-0.9333 I-0.0125 J0.0
G2 Y23.5345 Z-0.9667 I0.0062 J0.0108
G2 X19.6498 Y23.5237 Z-1.0 I0.0063 J-0.0108
G2 X19.6311 Y23.5129 Z-1.0333 I-0.0125 J0.0
G2 Y23.5345 Z-1.0667 I0.0062 J0.0108
G2 X19.6498 Y23.5237 Z-1.1 I0.0063 J-0.0108
G2 X19.6311 Y23.5129 Z-1.1333 I-0.0125 J0.0
G2 Y23.5345 Z-1.1667 I0.0062 J0.0108
G2 X19.6498 Y23.5237 Z-1.2 I0.0063 J-0.0108
G2 X19.6311 Y23.5129 Z-1.2333 I-0.0125 J0.0
G2 Y23.5345 Z-1.2667 I0.0062 J0.0108
G2 X19.6498 Y23.5237 Z-1.3 I0.0063 J-0.0108
G2 X19.6311 Y23.5129 Z-1.3333 I-0.0125 J0.0
G2 Y23.5345 Z-1.3667 I0.0062 J0.0108
G2 X19.6498 Y23.5237 Z-1.4 I0.0063 J-0.0108
G2 X19.6311 Y23.5129 Z-1.4333 I-0.0125 J0.0
G2 Y23.5345 Z-1.4667 I0.0062 J0.0108
G2 X19.6498 Y23.5237 Z-1.5 I0.0063 J-0.0108
G2 X19.6311 Y23.5129 Z-1.5333 I-0.0125 J0.0
G2 Y23.5345 Z-1.5667 I0.0062 J0.0108
G2 X19.6498 Y23.5237 Z-1.6 I0.0063 J-0.0108
G2 X19.6311 Y23.5129 Z-1.6333 I-0.0125 J0.0
G2 Y23.5345 Z-1.6667 I0.0062 J0.0108
G2 X19.6498 Y23.5237 Z-1.7 I0.0063 J-0.0108
G2 X19.6311 Y23.5129 Z-1.7333 I-0.0125 J0.0
G2 Y23.5345 Z-1.7667 I0.0062 J0.0108
G2 X19.6498 Y23.5237 Z-1.8 I0.0063 J-0.0108
G2 X19.6311 Y23.5129 Z-1.8333 I-0.0125 J0.0
G2 Y23.5345 Z-1.8667 I0.0062 J0.0108
G2 X19.6498 Y23.5237 Z-1.9 I0.0063 J-0.0108
G2 X19.6311 Y23.5129 Z-1.9333 I-0.0125 J0.0
G2 Y23.5345 Z-1.9667 I0.0062 J0.0108
G2 X19.6498 Y23.5237 Z-2.0 I0.0063 J-0.0108
G2 X19.6311 Y23.5129 Z-2.0333 I-0.0125 J0.0
G2 Y23.5345 Z-2.0667 I0.0062 J0.0108
G2 X19.6498 Y23.5237 Z-2.1 I0.0063 J-0.0108
G2 X19.6311 Y23.5129 Z-2.1333 I-0.0125 J0.0
G2 Y23.5345 Z-2.1667 I0.0062 J0.0108
G2 X19.6498 Y23.5237 Z-2.2 I0.0063 J-0.0108
G2 X19.6311 Y23.5129 Z-2.2333 I-0.0125 J0.0
G2 Y23.5345 Z-2.2667 I0.0062 J0.0108
G2 X19.6498 Y23.5237 Z-2.3 I0.0063 J-0.0108
G2 X19.6311 Y23.5129 Z-2.3333 I-0.0125 J0.0
G2 Y23.5345 Z-2.3667 I0.0062 J0.0108
G2 X19.6498 Y23.5237 Z-2.4 I0.0063 J-0.0108
G2 X19.6311 Y23.5129 Z-2.4333 I-0.0125 J0.0
G2 Y23.5345 Z-2.4667 I0.0063 J0.0108
G2 X19.6498 Y23.5237 Z-2.5 I0.0062 J-0.0108
G2 X19.6311 Y23.5129 Z-2.5333 I-0.0125 J0.0
G2 Y23.5345 Z-2.5667 I0.0063 J0.0108
G2 X19.6498 Y23.5237 Z-2.6 I0.0062 J-0.0108
G2 X19.6311 Y23.5129 Z-2.6333 I-0.0125 J0.0
G2 Y23.5345 Z-2.6667 I0.0063 J0.0108
G2 X19.6498 Y23.5237 Z-2.7 I0.0062 J-0.0108
G2 X19.6311 Y23.5129 Z-2.7333 I-0.0125 J0.0
G2 Y23.5345 Z-2.7667 I0.0063 J0.0108
G2 X19.6498 Y23.5237 Z-2.8 I0.0062 J-0.0108
G2 X19.6311 Y23.5129 Z-2.8333 I-0.0125 J0.0
G2 Y23.5345 Z-2.8667 I0.0063 J0.0108
G2 X19.6498 Y23.5237 Z-2.9 I0.0062 J-0.0108
G2 X19.6311 Y23.5129 Z-2.9333 I-0.0125 J0.0
G2 Y23.5345 Z-2.9667 I0.0063 J0.0108
G2 X19.6498 Y23.5237 Z-3.0 I0.0062 J-0.0108
G2 X19.6311 Y23.5129 Z-3.0333 I-0.0125 J0.0
G2 Y23.5345 Z-3.0667 I0.0063 J0.0108
G2 X19.6498 Y23.5237 Z-3.1 I0.0062 J-0.0108
G2 X19.6311 Y23.5129 Z-3.1333 I-0.0125 J0.0
G2 Y23.5345 Z-3.1667 I0.0063 J0.0108
G2 X19.6498 Y23.5237 Z-3.2 I0.0062 J-0.0108
G2 X19.6311 Y23.5129 I-0.0125 J0.0
G2 Y23.5345 I0.0063 J0.0108
G2 X19.6498 Y23.5237 I0.0062 J-0.0108
G0 Z3.0
G0 X26.6885 Y37.6465
G1 F1000.0 Z0.0
G2 F2000.0 X26.6698 Y37.6356 Z-0.0333 I-0.0125 J0.0
G2 Y37.6573 Z-0.0667 I0.0063 J0.0108
G2 X26.6885 Y37.6465 Z-0.1 I0.0062 J-0.0108
G2 X26.6698 Y37.6356 Z-0.1333 I-0.0125 J0.0
G2 Y37.6573 Z-0.1667 I0.0063 J0.0108
G2 X26.6885 Y37.6465 Z-0.2 I0.0062 J-0.0108
G2 X26.6698 Y37.6356 Z-0.2333 I-0.0125 J0.0
G2 Y37.6573 Z-0.2667 I0.0063 J0.0108
G2 X26.6885 Y37.6465 Z-0.3 I0.0062 J-0.0108
G2 X26.6698 Y37.6356 Z-0.3333 I-0.0125 J0.0
G2 Y37.6573 Z-0.3667 I0.0063 J0.0108
G2 X26.6885 Y37.6465 Z-0.4 I0.0062 J-0.0108
G2 X26.6698 Y37.6356 Z-0.4333 I-0.0125 J0.0
G2 Y37.6573 Z-0.4667 I0.0063 J0.0108
G2 X26.6885 Y37.6465 Z-0.5 I0.0062 J-0.0108
G2 X26.6698 Y37.6356 Z-0.5333 I-0.0125 J0.0
G2 Y37.6573 Z-0.5667 I0.0063 J0.0108
G2 X26.6885 Y37.6465 Z-0.6 I0.0062 J-0.0108
G2 X26.6698 Y37.6356 Z-0.6333 I-0.0125 J0.0
G2 Y37.6573 Z-0.6667 I0.0063 J0.0108
G2 X26.6885 Y37.6465 Z-0.7 I0.0062 J-0.0108
G2 X26.6698 Y37.6356 Z-0.7333 I-0.0125 J0.0
G2 Y37.6573 Z-0.7667 I0.0063 J0.0108
G2 X26.6885 Y37.6465 Z-0.8 I0.0062 J-0.0108
G2 X26.6698 Y37.6356 Z-0.8333 I-0.0125 J0.0
G2 Y37.6573 Z-0.8667 I0.0063 J0.0108
G2 X26.6885 Y37.6465 Z-0.9 I0.0062 J-0.0108
G2 X26.6698 Y37.6356 Z-0.9333 I-0.0125 J0.0
G2 Y37.6573 Z-0.9667 I0.0063 J0.0108
G2 X26.6885 Y37.6465 Z-1.0 I0.0062 J-0.0108
G2 X26.6698 Y37.6356 Z-1.0333 I-0.0125 J0.0
G2 Y37.6573 Z-1.0667 I0.0063 J0.0108
G2 X26.6885 Y37.6465 Z-1.1 I0.0062 J-0.0108
G2 X26.6698 Y37.6356 Z-1.1333 I-0.0125 J0.0
G2 Y37.6573 Z-1.1667 I0.0063 J0.0108
G2 X26.6885 Y37.6465 Z-1.2 I0.0062 J-0.0108
G2 X26.6698 Y37.6356 Z-1.2333 I-0.0125 J0.0
G2 Y37.6573 Z-1.2667 I0.0063 J0.0108
G2 X26.6885 Y37.6465 Z-1.3 I0.0062 J-0.0108
G2 X26.6698 Y37.6356 Z-1.3333 I-0.0125 J0.0
G2 Y37.6573 Z-1.3667 I0.0063 J0.0108
G2 X26.6885 Y37.6465 Z-1.4 I0.0062 J-0.0108
G2 X26.6698 Y37.6356 Z-1.4333 I-0.0125 J0.0
G2 Y37.6573 Z-1.4667 I0.0063 J0.0108
G2 X26.6885 Y37.6465 Z-1.5 I0.0062 J-0.0108
G2 X26.6698 Y37.6356 Z-1.5333 I-0.0125 J0.0
G2 Y37.6573 Z-1.5667 I0.0063 J0.0108
G2 X26.6885 Y37.6465 Z-1.6 I0.0062 J-0.0108
G2 X26.6698 Y37.6356 Z-1.6333 I-0.0125 J0.0
G2 Y37.6573 Z-1.6667 I0.0063 J0.0108
G2 X26.6885 Y37.6465 Z-1.7 I0.0062 J-0.0108
G2 X26.6698 Y37.6356 Z-1.7333 I-0.0125 J0.0
G2 Y37.6573 Z-1.7667 I0.0063 J0.0108
G2 X26.6885 Y37.6465 Z-1.8 I0.0062 J-0.0108
G2 X26.6698 Y37.6356 Z-1.8333 I-0.0125 J0.0
G2 Y37.6573 Z-1.8667 I0.0063 J0.0108
G2 X26.6885 Y37.6465 Z-1.9 I0.0062 J-0.0108
G2 X26.6698 Y37.6356 Z-1.9333 I-0.0125 J0.0
G2 Y37.6573 Z-1.9667 I0.0063 J0.0108
G2 X26.6885 Y37.6465 Z-2.0 I0.0062 J-0.0108
G2 X26.6698 Y37.6356 Z-2.0333 I-0.0125 J0.0
G2 Y37.6573 Z-2.0667 I0.0063 J0.0108
G2 X26.6885 Y37.6465 Z-2.1 I0.0062 J-0.0108
G2 X26.6698 Y37.6356 Z-2.1333 I-0.0125 J0.0
G2 Y37.6573 Z-2.1667 I0.0063 J0.0108
G2 X26.6885 Y37.6465 Z-2.2 I0.0062 J-0.0108
G2 X26.6698 Y37.6356 Z-2.2333 I-0.0125 J0.0
G2 Y37.6573 Z-2.2667 I0.0063 J0.0108
G2 X26.6885 Y37.6465 Z-2.3 I0.0062 J-0.0108
G2 X26.6698 Y37.6356 Z-2.3333 I-0.0125 J0.0
G2 Y37.6573 Z-2.3667 I0.0063 J0.0108
G2 X26.6885 Y37.6465 Z-2.4 I0.0062 J-0.0108
G2 X26.6698 Y37.6356 Z-2.4333 I-0.0125 J0.0
G2 Y37.6573 Z-2.4667 I0.0063 J0.0108
G2 X26.6885 Y37.6465 Z-2.5 I0.0062 J-0.0108
G2 X26.6698 Y37.6356 Z-2.5333 I-0.0125 J0.0
G2 Y37.6573 Z-2.5667 I0.0063 J0.0108
G2 X26.6885 Y37.6465 Z-2.6 I0.0062 J-0.0108
G2 X26.6698 Y37.6356 Z-2.6333 I-0.0125 J0.0
G2 Y37.6573 Z-2.6667 I0.0063 J0.0108
G2 X26.6885 Y37.6465 Z-2.7 I0.0062 J-0.0108
G2 X26.6698 Y37.6356 Z-2.7333 I-0.0125 J0.0
G2 Y37.6573 Z-2.7667 I0.0063 J0.0108
G2 X26.6885 Y37.6465 Z-2.8 I0.0062 J-0.0108
G2 X26.6698 Y37.6356 Z-2.8333 I-0.0125 J0.0
G2 Y37.6573 Z-2.8667 I0.0063 J0.0108
G2 X26.6885 Y37.6465 Z-2.9 I0.0062 J-0.0108
G2 X26.6698 Y37.6356 Z-2.9333 I-0.0125 J0.0
G2 Y37.6573 Z-2.9667 I0.0063 J0.0108
G2 X26.6885 Y37.6465 Z-3.0 I0.0062 J-0.0108
G2 X26.6698 Y37.6356 Z-3.0333 I-0.0125 J0.0
G2 Y37.6573 Z-3.0667 I0.0063 J0.0108
G2 X26.6885 Y37.6465 Z-3.1 I0.0062 J-0.0108
G2 X26.6698 Y37.6356 Z-3.1333 I-0.0125 J0.0
G2 Y37.6573 Z-3.1667 I0.0063 J0.0108
G2 X26.6885 Y37.6465 Z-3.2 I0.0062 J-0.0108
G2 X26.6698 Y37.6356 I-0.0125 J0.0
G2 Y37.6573 I0.0063 J0.0108
G2 X26.6885 Y37.6465 I0.0062 J-0.0108
G0 Z3.0
G0 Y55.486
G1 F1000.0 Z0.0
G2 F2000.0 X26.6698 Y55.4752 Z-0.0333 I-0.0125 J0.0
G2 Y55.4968 Z-0.0667 I0.0063 J0.0108
G2 X26.6885 Y55.486 Z-0.1 I0.0062 J-0.0108
G2 X26.6698 Y55.4752 Z-0.1333 I-0.0125 J0.0
G2 Y55.4968 Z-0.1667 I0.0063 J0.0108
G2 X26.6885 Y55.486 Z-0.2 I0.0062 J-0.0108
G2 X26.6698 Y55.4752 Z-0.2333 I-0.0125 J0.0
G2 Y55.4968 Z-0.2667 I0.0063 J0.0108
G2 X26.6885 Y55.486 Z-0.3 I0.0062 J-0.0108
G2 X26.6698 Y55.4752 Z-0.3333 I-0.0125 J0.0
G2 Y55.4968 Z-0.3667 I0.0063 J0.0108
G2 X26.6885 Y55.486 Z-0.4 I0.0062 J-0.0108
G2 X26.6698 Y55.4752 Z-0.4333 I-0.0125 J0.0
G2 Y55.4968 Z-0.4667 I0.0063 J0.0108
G2 X26.6885 Y55.486 Z-0.5 I0.0062 J-0.0108
G2 X26.6698 Y55.4752 Z-0.5333 I-0.0125 J0.0
G2 Y55.4968 Z-0.5667 I0.0063 J0.0108
G2 X26.6885 Y55.486 Z-0.6 I0.0062 J-0.0108
G2 X26.6698 Y55.4752 Z-0.6333 I-0.0125 J0.0
G2 Y55.4968 Z-0.6667 I0.0063 J0.0108
G2 X26.6885 Y55.486 Z-0.7 I0.0062 J-0.0108
G2 X26.6698 Y55.4752 Z-0.7333 I-0.0125 J0.0
G2 Y55.4968 Z-0.7667 I0.0063 J0.0108
G2 X26.6885 Y55.486 Z-0.8 I0.0062 J-0.0108
G2 X26.6698 Y55.4752 Z-0.8333 I-0.0125 J0.0
G2 Y55.4968 Z-0.8667 I0.0063 J0.0108
G2 X26.6885 Y55.486 Z-0.9 I0.0062 J-0.0108
G2 X26.6698 Y55.4752 Z-0.9333 I-0.0125 J0.0
G2 Y55.4968 Z-0.9667 I0.0063 J0.0108
G2 X26.6885 Y55.486 Z-1.0 I0.0062 J-0.0108
G2 X26.6698 Y55.4752 Z-1.0333 I-0.0125 J0.0
G2 Y55.4968 Z-1.0667 I0.0063 J0.0108
G2 X26.6885 Y55.486 Z-1.1 I0.0062 J-0.0108
G2 X26.6698 Y55.4752 Z-1.1333 I-0.0125 J0.0
G2 Y55.4968 Z-1.1667 I0.0063 J0.0108
G2 X26.6885 Y55.486 Z-1.2 I0.0062 J-0.0108
G2 X26.6698 Y55.4752 Z-1.2333 I-0.0125 J0.0
G2 Y55.4968 Z-1.2667 I0.0063 J0.0108
G2 X26.6885 Y55.486 Z-1.3 I0.0062 J-0.0108
G2 X26.6698 Y55.4752 Z-1.3333 I-0.0125 J0.0
G2 Y55.4968 Z-1.3667 I0.0063 J0.0108
G2 X26.6885 Y55.486 Z-1.4 I0.0062 J-0.0108
G2 X26.6698 Y55.4752 Z-1.4333 I-0.0125 J0.0
G2 Y55.4968 Z-1.4667 I0.0063 J0.0108
G2 X26.6885 Y55.486 Z-1.5 I0.0062 J-0.0108
G2 X26.6698 Y55.4752 Z-1.5333 I-0.0125 J0.0
G2 Y55.4968 Z-1.5667 I0.0063 J0.0108
G2 X26.6885 Y55.486 Z-1.6 I0.0062 J-0.0108
G2 X26.6698 Y55.4752 Z-1.6333 I-0.0125 J0.0
G2 Y55.4968 Z-1.6667 I0.0063 J0.0108
G2 X26.6885 Y55.486 Z-1.7 I0.0062 J-0.0108
G2 X26.6698 Y55.4752 Z-1.7333 I-0.0125 J0.0
G2 Y55.4968 Z-1.7667 I0.0063 J0.0108
G2 X26.6885 Y55.486 Z-1.8 I0.0062 J-0.0108
G2 X26.6698 Y55.4752 Z-1.8333 I-0.0125 J0.0
G2 Y55.4968 Z-1.8667 I0.0063 J0.0108
G2 X26.6885 Y55.486 Z-1.9 I0.0062 J-0.0108
G2 X26.6698 Y55.4752 Z-1.9333 I-0.0125 J0.0
G2 Y55.4968 Z-1.9667 I0.0063 J0.0108
G2 X26.6885 Y55.486 Z-2.0 I0.0062 J-0.0108
G2 X26.6698 Y55.4752 Z-2.0333 I-0.0125 J0.0
G2 Y55.4968 Z-2.0667 I0.0063 J0.0108
G2 X26.6885 Y55.486 Z-2.1 I0.0062 J-0.0108
G2 X26.6698 Y55.4752 Z-2.1333 I-0.0125 J0.0
G2 Y55.4968 Z-2.1667 I0.0063 J0.0108
G2 X26.6885 Y55.486 Z-2.2 I0.0062 J-0.0108
G2 X26.6698 Y55.4752 Z-2.2333 I-0.0125 J0.0
G2 Y55.4968 Z-2.2667 I0.0063 J0.0108
G2 X26.6885 Y55.486 Z-2.3 I0.0062 J-0.0108
G2 X26.6698 Y55.4752 Z-2.3333 I-0.0125 J0.0
G2 Y55.4968 Z-2.3667 I0.0063 J0.0108
G2 X26.6885 Y55.486 Z-2.4 I0.0062 J-0.0108
G2 X26.6698 Y55.4752 Z-2.4333 I-0.0125 J0.0
G2 Y55.4968 Z-2.4667 I0.0063 J0.0108
G2 X26.6885 Y55.486 Z-2.5 I0.0062 J-0.0108
G2 X26.6698 Y55.4752 Z-2.5333 I-0.0125 J0.0
G2 Y55.4968 Z-2.5667 I0.0063 J0.0108
G2 X26.6885 Y55.486 Z-2.6 I0.0062 J-0.0108
G2 X26.6698 Y55.4752 Z-2.6333 I-0.0125 J0.0
G2 Y55.4968 Z-2.6667 I0.0063 J0.0108
G2 X26.6885 Y55.486 Z-2.7 I0.0062 J-0.0108
G2 X26.6698 Y55.4752 Z-2.7333 I-0.0125 J0.0
G2 Y55.4968 Z-2.7667 I0.0063 J0.0108
G2 X26.6885 Y55.486 Z-2.8 I0.0062 J-0.0108
G2 X26.6698 Y55.4752 Z-2.8333 I-0.0125 J0.0
G2 Y55.4968 Z-2.8667 I0.0063 J0.0108
G2 X26.6885 Y55.486 Z-2.9 I0.0062 J-0.0108
G2 X26.6698 Y55.4752 Z-2.9333 I-0.0125 J0.0
G2 Y55.4968 Z-2.9667 I0.0063 J0.0108
G2 X26.6885 Y55.486 Z-3.0 I0.0062 J-0.0108
G2 X26.6698 Y55.4752 Z-3.0333 I-0.0125 J0.0
G2 Y55.4968 Z-3.0667 I0.0063 J0.0108
G2 X26.6885 Y55.486 Z-3.1 I0.0062 J-0.0108
G2 X26.6698 Y55.4752 Z-3.1333 I-0.0125 J0.0
G2 Y55.4968 Z-3.1667 I0.0063 J0.0108
G2 X26.6885 Y55.486 Z-3.2 I0.0062 J-0.0108
G2 X26.6698 Y55.4752 I-0.0125 J0.0
G2 Y55.4968 I0.0063 J0.0108
G2 X26.6885 Y55.486 I0.0062 J-0.0108
G0 Z3.0
G0 X19.6392 Y69.1944
G1 F1000.0 Z0.0
G2 F2000.0 X19.6204 Y69.1836 Z-0.0333 I-0.0125 J0.0
G2 Y69.2052 Z-0.0667 I0.0062 J0.0108
G2 X19.6392 Y69.1944 Z-0.1 I0.0063 J-0.0108
G2 X19.6204 Y69.1836 Z-0.1333 I-0.0125 J0.0
G2 Y69.2052 Z-0.1667 I0.0062 J0.0108
G2 X19.6392 Y69.1944 Z-0.2 I0.0063 J-0.0108
G2 X19.6204 Y69.1836 Z-0.2333 I-0.0125 J0.0
G2 Y69.2052 Z-0.2667 I0.0062 J0.0108
G2 X19.6392 Y69.1944 Z-0.3 I0.0063 J-0.0108
G2 X19.6204 Y69.1836 Z-0.3333 I-0.0125 J0.0
G2 Y69.2052 Z-0.3667 I0.0062 J0.0108
G2 X19.6392 Y69.1944 Z-0.4 I0.0063 J-0.0108
G2 X19.6204 Y69.1836 Z-0.4333 I-0.0125 J0.0
G2 Y69.2052 Z-0.4667 I0.0062 J0.0108
G2 X19.6392 Y69.1944 Z-0.5 I0.0063 J-0.0108
G2 X19.6204 Y69.1836 Z-0.5333 I-0.0125 J0.0
G2 Y69.2052 Z-0.5667 I0.0062 J0.0108
G2 X19.6392 Y69.1944 Z-0.6 I0.0063 J-0.0108
G2 X19.6204 Y69.1836 Z-0.6333 I-0.0125 J0.0
G2 Y69.2052 Z-0.6667 I0.0062 J0.0108
G2 X19.6392 Y69.1944 Z-0.7 I0.0063 J-0.0108
G2 X19.6204 Y69.1836 Z-0.7333 I-0.0125 J0.0
G2 Y69.2052 Z-0.7667 I0.0062 J0.0108
G2 X19.6392 Y69.1944 Z-0.8 I0.0063 J-0.0108
G2 X19.6204 Y69.1836 Z-0.8333 I-0.0125 J0.0
G2 Y69.2052 Z-0.8667 I0.0062 J0.0108
G2 X19.6392 Y69.1944 Z-0.9 I0.0063 J-0.0108
G2 X19.6204 Y69.1836 Z-0.9333 I-0.0125 J0.0
G2 Y69.2052 Z-0.9667 I0.0062 J0.0108
G2 X19.6392 Y69.1944 Z-1.0 I0.0063 J-0.0108
G2 X19.6204 Y69.1836 Z-1.0333 I-0.0125 J0.0
G2 Y69.2052 Z-1.0667 I0.0062 J0.0108
G2 X19.6392 Y69.1944 Z-1.1 I0.0063 J-0.0108
G2 X19.6204 Y69.1836 Z-1.1333 I-0.0125 J0.0
G2 Y69.2052 Z-1.1667 I0.0062 J0.0108
G2 X19.6392 Y69.1944 Z-1.2 I0.0063 J-0.0108
G2 X19.6204 Y69.1836 Z-1.2333 I-0.0125 J0.0
G2 Y69.2052 Z-1.2667 I0.0062 J0.0108
G2 X19.6392 Y69.1944 Z-1.3 I0.0063 J-0.0108
G2 X19.6204 Y69.1836 Z-1.3333 I-0.0125 J0.0
G2 Y69.2052 Z-1.3667 I0.0062 J0.0108
G2 X19.6392 Y69.1944 Z-1.4 I0.0063 J-0.0108
G2 X19.6204 Y69.1836 Z-1.4333 I-0.0125 J0.0
G2 Y69.2052 Z-1.4667 I0.0062 J0.0108
G2 X19.6392 Y69.1944 Z-1.5 I0.0063 J-0.0108
G2 X19.6204 Y69.1836 Z-1.5333 I-0.0125 J0.0
G2 Y69.2052 Z-1.5667 I0.0062 J0.0108
G2 X19.6392 Y69.1944 Z-1.6 I0.0063 J-0.0108
G2 X19.6204 Y69.1836 Z-1.6333 I-0.0125 J0.0
G2 Y69.2052 Z-1.6667 I0.0062 J0.0108
G2 X19.6392 Y69.1944 Z-1.7 I0.0063 J-0.0108
G2 X19.6204 Y69.1836 Z-1.7333 I-0.0125 J0.0
G2 Y69.2052 Z-1.7667 I0.0062 J0.0108
G2 X19.6392 Y69.1944 Z-1.8 I0.0063 J-0.0108
G2 X19.6204 Y69.1836 Z-1.8333 I-0.0125 J0.0
G2 Y69.2052 Z-1.8667 I0.0062 J0.0108
G2 X19.6392 Y69.1944 Z-1.9 I0.0063 J-0.0108
G2 X19.6204 Y69.1836 Z-1.9333 I-0.0125 J0.0
G2 Y69.2052 Z-1.9667 I0.0062 J0.0108
G2 X19.6392 Y69.1944 Z-2.0 I0.0063 J-0.0108
G2 X19.6204 Y69.1836 Z-2.0333 I-0.0125 J0.0
G2 Y69.2052 Z-2.0667 I0.0062 J0.0108
G2 X19.6392 Y69.1944 Z-2.1 I0.0063 J-0.0108
G2 X19.6204 Y69.1836 Z-2.1333 I-0.0125 J0.0
G2 Y69.2052 Z-2.1667 I0.0062 J0.0108
G2 X19.6392 Y69.1944 Z-2.2 I0.0063 J-0.0108
G2 X19.6204 Y69.1836 Z-2.2333 I-0.0125 J0.0
G2 Y69.2052 Z-2.2667 I0.0062 J0.0108
G2 X19.6392 Y69.1944 Z-2.3 I0.0063 J-0.0108
G2 X19.6204 Y69.1836 Z-2.3333 I-0.0125 J0.0
G2 Y69.2052 Z-2.3667 I0.0062 J0.0108
G2 X19.6392 Y69.1944 Z-2.4 I0.0063 J-0.0108
G2 X19.6204 Y69.1836 Z-2.4333 I-0.0125 J0.0
G2 Y69.2052 Z-2.4667 I0.0062 J0.0108
G2 X19.6392 Y69.1944 Z-2.5 I0.0063 J-0.0108
G2 X19.6204 Y69.1836 Z-2.5333 I-0.0125 J0.0
G2 Y69.2052 Z-2.5667 I0.0062 J0.0108
G2 X19.6392 Y69.1944 Z-2.6 I0.0063 J-0.0108
G2 X19.6204 Y69.1836 Z-2.6333 I-0.0125 J0.0
G2 Y69.2052 Z-2.6667 I0.0062 J0.0108
G2 X19.6392 Y69.1944 Z-2.7 I0.0063 J-0.0108
G2 X19.6204 Y69.1836 Z-2.7333 I-0.0125 J0.0
G2 Y69.2052 Z-2.7667 I0.0062 J0.0108
G2 X19.6392 Y69.1944 Z-2.8 I0.0063 J-0.0108
G2 X19.6204 Y69.1836 Z-2.8333 I-0.0125 J0.0
G2 Y69.2052 Z-2.8667 I0.0062 J0.0108
G2 X19.6392 Y69.1944 Z-2.9 I0.0063 J-0.0108
G2 X19.6204 Y69.1836 Z-2.9333 I-0.0125 J0.0
G2 Y69.2052 Z-2.9667 I0.0062 J0.0108
G2 X19.6392 Y69.1944 Z-3.0 I0.0063 J-0.0108
G2 X19.6204 Y69.1836 Z-3.0333 I-0.0125 J0.0
G2 Y69.2052 Z-3.0667 I0.0062 J0.0108
G2 X19.6392 Y69.1944 Z-3.1 I0.0063 J-0.0108
G2 X19.6204 Y69.1836 Z-3.1333 I-0.0125 J0.0
G2 Y69.2052 Z-3.1667 I0.0062 J0.0108
G2 X19.6392 Y69.1944 Z-3.2 I0.0063 J-0.0108
G2 X19.6204 Y69.1836 I-0.0125 J0.0
G2 Y69.2052 I0.0063 J0.0108
G2 X19.6392 Y69.1944 I0.0062 J-0.0108
G0 Z3.0
G0 X19.648 Y80.6771
G1 F1000.0 Z0.0
G2 F2000.0 X19.6293 Y80.6663 Z-0.0333 I-0.0125 J0.0
G2 Y80.688 Z-0.0667 I0.0062 J0.0108
G2 X19.648 Y80.6771 Z-0.1 I0.0063 J-0.0108
G2 X19.6293 Y80.6663 Z-0.1333 I-0.0125 J0.0
G2 Y80.688 Z-0.1667 I0.0062 J0.0108
G2 X19.648 Y80.6771 Z-0.2 I0.0063 J-0.0108
G2 X19.6293 Y80.6663 Z-0.2333 I-0.0125 J0.0
G2 Y80.688 Z-0.2667 I0.0062 J0.0108
G2 X19.648 Y80.6771 Z-0.3 I0.0063 J-0.0108
G2 X19.6293 Y80.6663 Z-0.3333 I-0.0125 J0.0
G2 Y80.688 Z-0.3667 I0.0062 J0.0108
G2 X19.648 Y80.6771 Z-0.4 I0.0063 J-0.0108
G2 X19.6293 Y80.6663 Z-0.4333 I-0.0125 J0.0
G2 Y80.688 Z-0.4667 I0.0062 J0.0108
G2 X19.648 Y80.6771 Z-0.5 I0.0063 J-0.0108
G2 X19.6293 Y80.6663 Z-0.5333 I-0.0125 J0.0
G2 Y80.688 Z-0.5667 I0.0062 J0.0108
G2 X19.648 Y80.6771 Z-0.6 I0.0063 J-0.0108
G2 X19.6293 Y80.6663 Z-0.6333 I-0.0125 J0.0
G2 Y80.688 Z-0.6667 I0.0062 J0.0108
G2 X19.648 Y80.6771 Z-0.7 I0.0063 J-0.0108
G2 X19.6293 Y80.6663 Z-0.7333 I-0.0125 J0.0
G2 Y80.688 Z-0.7667 I0.0062 J0.0108
G2 X19.648 Y80.6771 Z-0.8 I0.0063 J-0.0108
G2 X19.6293 Y80.6663 Z-0.8333 I-0.0125 J0.0
G2 Y80.688 Z-0.8667 I0.0062 J0.0108
G2 X19.648 Y80.6771 Z-0.9 I0.0063 J-0.0108
G2 X19.6293 Y80.6663 Z-0.9333 I-0.0125 J0.0
G2 Y80.688 Z-0.9667 I0.0062 J0.0108
G2 X19.648 Y80.6771 Z-1.0 I0.0063 J-0.0108
G2 X19.6293 Y80.6663 Z-1.0333 I-0.0125 J0.0
G2 Y80.688 Z-1.0667 I0.0062 J0.0108
G2 X19.648 Y80.6771 Z-1.1 I0.0063 J-0.0108
G2 X19.6293 Y80.6663 Z-1.1333 I-0.0125 J0.0
G2 Y80.688 Z-1.1667 I0.0062 J0.0108
G2 X19.648 Y80.6771 Z-1.2 I0.0063 J-0.0108
G2 X19.6293 Y80.6663 Z-1.2333 I-0.0125 J0.0
G2 Y80.688 Z-1.2667 I0.0062 J0.0108
G2 X19.648 Y80.6771 Z-1.3 I0.0063 J-0.0108
G2 X19.6293 Y80.6663 Z-1.3333 I-0.0125 J0.0
G2 Y80.688 Z-1.3667 I0.0062 J0.0108
G2 X19.648 Y80.6771 Z-1.4 I0.0063 J-0.0108
G2 X19.6293 Y80.6663 Z-1.4333 I-0.0125 J0.0
G2 Y80.688 Z-1.4667 I0.0062 J0.0108
G2 X19.648 Y80.6771 Z-1.5 I0.0063 J-0.0108
G2 X19.6293 Y80.6663 Z-1.5333 I-0.0125 J0.0
G2 Y80.688 Z-1.5667 I0.0062 J0.0108
G2 X19.648 Y80.6771 Z-1.6 I0.0063 J-0.0108
G2 X19.6293 Y80.6663 Z-1.6333 I-0.0125 J0.0
G2 Y80.688 Z-1.6667 I0.0062 J0.0108
G2 X19.648 Y80.6771 Z-1.7 I0.0063 J-0.0108
G2 X19.6293 Y80.6663 Z-1.7333 I-0.0125 J0.0
G2 Y80.688 Z-1.7667 I0.0062 J0.0108
G2 X19.648 Y80.6771 Z-1.8 I0.0063 J-0.0108
G2 X19.6293 Y80.6663 Z-1.8333 I-0.0125 J0.0
G2 Y80.688 Z-1.8667 I0.0062 J0.0108
G2 X19.648 Y80.6771 Z-1.9 I0.0063 J-0.0108
G2 X19.6293 Y80.6663 Z-1.9333 I-0.0125 J0.0
G2 Y80.688 Z-1.9667 I0.0062 J0.0108
G2 X19.648 Y80.6771 Z-2.0 I0.0063 J-0.0108
G2 X19.6293 Y80.6663 Z-2.0333 I-0.0125 J0.0
G2 Y80.688 Z-2.0667 I0.0062 J0.0108
G2 X19.648 Y80.6771 Z-2.1 I0.0063 J-0.0108
G2 X19.6293 Y80.6663 Z-2.1333 I-0.0125 J0.0
G2 Y80.688 Z-2.1667 I0.0062 J0.0108
G2 X19.648 Y80.6771 Z-2.2 I0.0063 J-0.0108
G2 X19.6293 Y80.6663 Z-2.2333 I-0.0125 J0.0
G2 Y80.688 Z-2.2667 I0.0062 J0.0108
G2 X19.648 Y80.6771 Z-2.3 I0.0063 J-0.0108
G2 X19.6293 Y80.6663 Z-2.3333 I-0.0125 J0.0
G2 Y80.688 Z-2.3667 I0.0062 J0.0108
G2 X19.648 Y80.6771 Z-2.4 I0.0063 J-0.0108
G2 X19.6293 Y80.6663 Z-2.4333 I-0.0125 J0.0
G2 Y80.688 Z-2.4667 I0.0062 J0.0108
G2 X19.648 Y80.6771 Z-2.5 I0.0063 J-0.0108
G2 X19.6293 Y80.6663 Z-2.5333 I-0.0125 J0.0
G2 Y80.688 Z-2.5667 I0.0062 J0.0108
G2 X19.648 Y80.6771 Z-2.6 I0.0063 J-0.0108
G2 X19.6293 Y80.6663 Z-2.6333 I-0.0125 J0.0
G2 Y80.688 Z-2.6667 I0.0062 J0.0108
G2 X19.648 Y80.6771 Z-2.7 I0.0063 J-0.0108
G2 X19.6293 Y80.6663 Z-2.7333 I-0.0125 J0.0
G2 Y80.688 Z-2.7667 I0.0062 J0.0108
G2 X19.648 Y80.6771 Z-2.8 I0.0063 J-0.0108
G2 X19.6293 Y80.6663 Z-2.8333 I-0.0125 J0.0
G2 Y80.688 Z-2.8667 I0.0062 J0.0108
G2 X19.648 Y80.6771 Z-2.9 I0.0063 J-0.0108
G2 X19.6293 Y80.6663 Z-2.9333 I-0.0125 J0.0
G2 Y80.688 Z-2.9667 I0.0062 J0.0108
G2 X19.648 Y80.6771 Z-3.0 I0.0063 J-0.0108
G2 X19.6293 Y80.6663 Z-3.0333 I-0.0125 J0.0
G2 Y80.688 Z-3.0667 I0.0062 J0.0108
G2 X19.648 Y80.6771 Z-3.1 I0.0063 J-0.0108
G2 X19.6293 Y80.6663 Z-3.1333 I-0.0125 J0.0
G2 Y80.688 Z-3.1667 I0.0062 J0.0108
G2 X19.648 Y80.6771 Z-3.2 I0.0063 J-0.0108
G2 X19.6293 Y80.6663 I-0.0125 J0.0
G2 Y80.688 I0.0063 J0.0108
G2 X19.648 Y80.6771 I0.0062 J-0.0108
G0 Z3.0
G0 X26.6887 Y94.6827
G1 F1000.0 Z0.0
G2 F2000.0 X26.67 Y94.6719 Z-0.0333 I-0.0125 J0.0
G2 Y94.6935 Z-0.0667 I0.0062 J0.0108
G2 X26.6887 Y94.6827 Z-0.1 I0.0063 J-0.0108
G2 X26.67 Y94.6719 Z-0.1333 I-0.0125 J0.0
G2 Y94.6935 Z-0.1667 I0.0062 J0.0108
G2 X26.6887 Y94.6827 Z-0.2 I0.0063 J-0.0108
G2 X26.67 Y94.6719 Z-0.2333 I-0.0125 J0.0
G2 Y94.6935 Z-0.2667 I0.0062 J0.0108
G2 X26.6887 Y94.6827 Z-0.3 I0.0063 J-0.0108
G2 X26.67 Y94.6719 Z-0.3333 I-0.0125 J0.0
G2 Y94.6935 Z-0.3667 I0.0062 J0.0108
G2 X26.6887 Y94.6827 Z-0.4 I0.0063 J-0.0108
G2 X26.67 Y94.6719 Z-0.4333 I-0.0125 J0.0
G2 Y94.6935 Z-0.4667 I0.0062 J0.0108
G2 X26.6887 Y94.6827 Z-0.5 I0.0063 J-0.0108
G2 X26.67 Y94.6719 Z-0.5333 I-0.0125 J0.0
G2 Y94.6935 Z-0.5667 I0.0062 J0.0108
G2 X26.6887 Y94.6827 Z-0.6 I0.0063 J-0.0108
G2 X26.67 Y94.6719 Z-0.6333 I-0.0125 J0.0
G2 Y94.6935 Z-0.6667 I0.0062 J0.0108
G2 X26.6887 Y94.6827 Z-0.7 I0.0063 J-0.0108
G2 X26.67 Y94.6719 Z-0.7333 I-0.0125 J0.0
G2 Y94.6935 Z-0.7667 I0.0062 J0.0108
G2 X26.6887 Y94.6827 Z-0.8 I0.0063 J-0.0108
G2 X26.67 Y94.6719 Z-0.8333 I-0.0125 J0.0
G2 Y94.6935 Z-0.8667 I0.0062 J0.0108
G2 X26.6887 Y94.6827 Z-0.9 I0.0063 J-0.0108
G2 X26.67 Y94.6719 Z-0.9333 I-0.0125 J0.0
G2 Y94.6935 Z-0.9667 I0.0062 J0.0108
G2 X26.6887 Y94.6827 Z-1.0 I0.0063 J-0.0108
G2 X26.67 Y94.6719 Z-1.0333 I-0.0125 J0.0
G2 Y94.6935 Z-1.0667 I0.0062 J0.0108
G2 X26.6887 Y94.6827 Z-1.1 I0.0063 J-0.0108
G2 X26.67 Y94.6719 Z-1.1333 I-0.0125 J0.0
G2 Y94.6935 Z-1.1667 I0.0062 J0.0108
G2 X26.6887 Y94.6827 Z-1.2 I0.0063 J-0.0108
G2 X26.67 Y94.6719 Z-1.2333 I-0.0125 J0.0
G2 Y94.6935 Z-1.2667 I0.0062 J0.0108
G2 X26.6887 Y94.6827 Z-1.3 I0.0063 J-0.0108
G2 X26.67 Y94.6719 Z-1.3333 I-0.0125 J0.0
G2 Y94.6935 Z-1.3667 I0.0062 J0.0108
G2 X26.6887 Y94.6827 Z-1.4 I0.0063 J-0.0108
G2 X26.67 Y94.6719 Z-1.4333 I-0.0125 J0.0
G2 Y94.6935 Z-1.4667 I0.0062 J0.0108
G2 X26.6887 Y94.6827 Z-1.5 I0.0063 J-0.0108
G2 X26.67 Y94.6719 Z-1.5333 I-0.0125 J0.0
G2 Y94.6935 Z-1.5667 I0.0062 J0.0108
G2 X26.6887 Y94.6827 Z-1.6 I0.0063 J-0.0108
G2 X26.67 Y94.6719 Z-1.6333 I-0.0125 J0.0
G2 Y94.6935 Z-1.6667 I0.0062 J0.0108
G2 X26.6887 Y94.6827 Z-1.7 I0.0063 J-0.0108
G2 X26.67 Y94.6719 Z-1.7333 I-0.0125 J0.0
G2 Y94.6935 Z-1.7667 I0.0062 J0.0108
G2 X26.6887 Y94.6827 Z-1.8 I0.0063 J-0.0108
G2 X26.67 Y94.6719 Z-1.8333 I-0.0125 J0.0
G2 Y94.6935 Z-1.8667 I0.0062 J0.0108
G2 X26.6887 Y94.6827 Z-1.9 I0.0063 J-0.0108
G2 X26.67 Y94.6719 Z-1.9333 I-0.0125 J0.0
G2 Y94.6935 Z-1.9667 I0.0062 J0.0108
G2 X26.6887 Y94.6827 Z-2.0 I0.0063 J-0.0108
G2 X26.67 Y94.6719 Z-2.0333 I-0.0125 J0.0
G2 Y94.6935 Z-2.0667 I0.0062 J0.0108
G2 X26.6887 Y94.6827 Z-2.1 I0.0063 J-0.0108
G2 X26.67 Y94.6719 Z-2.1333 I-0.0125 J0.0
G2 Y94.6935 Z-2.1667 I0.0062 J0.0108
G2 X26.6887 Y94.6827 Z-2.2 I0.0063 J-0.0108
G2 X26.67 Y94.6719 Z-2.2333 I-0.0125 J0.0
G2 Y94.6935 Z-2.2667 I0.0062 J0.0108
G2 X26.6887 Y94.6827 Z-2.3 I0.0063 J-0.0108
G2 X26.67 Y94.6719 Z-2.3333 I-0.0125 J0.0
G2 Y94.6935 Z-2.3667 I0.0062 J0.0108
G2 X26.6887 Y94.6827 Z-2.4 I0.0063 J-0.0108
G2 X26.67 Y94.6719 Z-2.4333 I-0.0125 J0.0
G2 Y94.6935 Z-2.4667 I0.0062 J0.0108
G2 X26.6887 Y94.6827 Z-2.5 I0.0063 J-0.0108
G2 X26.67 Y94.6719 Z-2.5333 I-0.0125 J0.0
G2 Y94.6935 Z-2.5667 I0.0062 J0.0108
G2 X26.6887 Y94.6827 Z-2.6 I0.0063 J-0.0108
G2 X26.67 Y94.6719 Z-2.6333 I-0.0125 J0.0
G2 Y94.6935 Z-2.6667 I0.0062 J0.0108
G2 X26.6887 Y94.6827 Z-2.7 I0.0063 J-0.0108
G2 X26.67 Y94.6719 Z-2.7333 I-0.0125 J0.0
G2 Y94.6935 Z-2.7667 I0.0062 J0.0108
G2 X26.6887 Y94.6827 Z-2.8 I0.0063 J-0.0108
G2 X26.67 Y94.6719 Z-2.8333 I-0.0125 J0.0
G2 Y94.6935 Z-2.8667 I0.0062 J0.0108
G2 X26.6887 Y94.6827 Z-2.9 I0.0063 J-0.0108
G2 X26.67 Y94.6719 Z-2.9333 I-0.0125 J0.0
G2 Y94.6935 Z-2.9667 I0.0062 J0.0108
G2 X26.6887 Y94.6827 Z-3.0 I0.0063 J-0.0108
G2 X26.67 Y94.6719 Z-3.0333 I-0.0125 J0.0
G2 Y94.6935 Z-3.0667 I0.0062 J0.0108
G2 X26.6887 Y94.6827 Z-3.1 I0.0063 J-0.0108
G2 X26.67 Y94.6719 Z-3.1333 I-0.0125 J0.0
G2 Y94.6935 Z-3.1667 I0.0062 J0.0108
G2 X26.6887 Y94.6827 Z-3.2 I0.0063 J-0.0108
G2 X26.67 Y94.6719 I-0.0125 J0.0
G2 Y94.6935 I0.0063 J0.0108
G2 X26.6887 Y94.6827 I0.0062 J-0.0108
G0 Z3.0
G0 X19.6424 Y108.7063
G1 F1000.0 Z0.0
G2 F2000.0 X19.6237 Y108.6955 Z-0.0333 I-0.0125 J0.0
G2 Y108.7172 Z-0.0667 I0.0062 J0.0108
G2 X19.6424 Y108.7063 Z-0.1 I0.0063 J-0.0108
G2 X19.6237 Y108.6955 Z-0.1333 I-0.0125 J0.0
G2 Y108.7172 Z-0.1667 I0.0062 J0.0108
G2 X19.6424 Y108.7063 Z-0.2 I0.0063 J-0.0108
G2 X19.6237 Y108.6955 Z-0.2333 I-0.0125 J0.0
G2 Y108.7172 Z-0.2667 I0.0062 J0.0108
G2 X19.6424 Y108.7063 Z-0.3 I0.0063 J-0.0108
G2 X19.6237 Y108.6955 Z-0.3333 I-0.0125 J0.0
G2 Y108.7172 Z-0.3667 I0.0062 J0.0108
G2 X19.6424 Y108.7063 Z-0.4 I0.0063 J-0.0108
G2 X19.6237 Y108.6955 Z-0.4333 I-0.0125 J0.0
G2 Y108.7172 Z-0.4667 I0.0062 J0.0108
G2 X19.6424 Y108.7063 Z-0.5 I0.0063 J-0.0108
G2 X19.6237 Y108.6955 Z-0.5333 I-0.0125 J0.0
G2 Y108.7172 Z-0.5667 I0.0062 J0.0108
G2 X19.6424 Y108.7063 Z-0.6 I0.0063 J-0.0108
G2 X19.6237 Y108.6955 Z-0.6333 I-0.0125 J0.0
G2 Y108.7172 Z-0.6667 I0.0062 J0.0108
G2 X19.6424 Y108.7063 Z-0.7 I0.0063 J-0.0108
G2 X19.6237 Y108.6955 Z-0.7333 I-0.0125 J0.0
G2 Y108.7172 Z-0.7667 I0.0062 J0.0108
G2 X19.6424 Y108.7063 Z-0.8 I0.0063 J-0.0108
G2 X19.6237 Y108.6955 Z-0.8333 I-0.0125 J0.0
G2 Y108.7172 Z-0.8667 I0.0062 J0.0108
G2 X19.6424 Y108.7063 Z-0.9 I0.0063 J-0.0108
G2 X19.6237 Y108.6955 Z-0.9333 I-0.0125 J0.0
G2 Y108.7172 Z-0.9667 I0.0062 J0.0108
G2 X19.6424 Y108.7063 Z-1.0 I0.0063 J-0.0108
G2 X19.6237 Y108.6955 Z-1.0333 I-0.0125 J0.0
G2 Y108.7172 Z-1.0667 I0.0062 J0.0108
G2 X19.6424 Y108.7063 Z-1.1 I0.0063 J-0.0108
G2 X19.6237 Y108.6955 Z-1.1333 I-0.0125 J0.0
G2 Y108.7172 Z-1.1667 I0.0062 J0.0108
G2 X19.6424 Y108.7063 Z-1.2 I0.0063 J-0.0108
G2 X19.6237 Y108.6955 Z-1.2333 I-0.0125 J0.0
G2 Y108.7172 Z-1.2667 I0.0062 J0.0108
G2 X19.6424 Y108.7063 Z-1.3 I0.0063 J-0.0108
G2 X19.6237 Y108.6955 Z-1.3333 I-0.0125 J0.0
G2 Y108.7172 Z-1.3667 I0.0062 J0.0108
G2 X19.6424 Y108.7063 Z-1.4 I0.0063 J-0.0108
G2 X19.6237 Y108.6955 Z-1.4333 I-0.0125 J0.0
G2 Y108.7172 Z-1.4667 I0.0062 J0.0108
G2 X19.6424 Y108.7063 Z-1.5 I0.0063 J-0.0108
G2 X19.6237 Y108.6955 Z-1.5333 I-0.0125 J0.0
G2 Y108.7172 Z-1.5667 I0.0062 J0.0108
G2 X19.6424 Y108.7063 Z-1.6 I0.0063 J-0.0108
G2 X19.6237 Y108.6955 Z-1.6333 I-0.0125 J0.0
G2 Y108.7172 Z-1.6667 I0.0062 J0.0108
G2 X19.6424 Y108.7063 Z-1.7 I0.0063 J-0.0108
G2 X19.6237 Y108.6955 Z-1.7333 I-0.0125 J0.0
G2 Y108.7172 Z-1.7667 I0.0062 J0.0108
G2 X19.6424 Y108.7063 Z-1.8 I0.0063 J-0.0108
G2 X19.6237 Y108.6955 Z-1.8333 I-0.0125 J0.0
G2 Y108.7172 Z-1.8667 I0.0062 J0.0108
G2 X19.6424 Y108.7063 Z-1.9 I0.0063 J-0.0108
G2 X19.6237 Y108.6955 Z-1.9333 I-0.0125 J0.0
G2 Y108.7172 Z-1.9667 I0.0062 J0.0108
G2 X19.6424 Y108.7063 Z-2.0 I0.0063 J-0.0108
G2 X19.6237 Y108.6955 Z-2.0333 I-0.0125 J0.0
G2 Y108.7172 Z-2.0667 I0.0062 J0.0108
G2 X19.6424 Y108.7063 Z-2.1 I0.0063 J-0.0108
G2 X19.6237 Y108.6955 Z-2.1333 I-0.0125 J0.0
G2 Y108.7172 Z-2.1667 I0.0062 J0.0108
G2 X19.6424 Y108.7063 Z-2.2 I0.0063 J-0.0108
G2 X19.6237 Y108.6955 Z-2.2333 I-0.0125 J0.0
G2 Y108.7172 Z-2.2667 I0.0062 J0.0108
G2 X19.6424 Y108.7063 Z-2.3 I0.0063 J-0.0108
G2 X19.6237 Y108.6955 Z-2.3333 I-0.0125 J0.0
G2 Y108.7172 Z-2.3667 I0.0062 J0.0108
G2 X19.6424 Y108.7063 Z-2.4 I0.0063 J-0.0108
G2 X19.6237 Y108.6955 Z-2.4333 I-0.0125 J0.0
G2 Y108.7172 Z-2.4667 I0.0062 J0.0108
G2 X19.6424 Y108.7063 Z-2.5 I0.0063 J-0.0108
G2 X19.6237 Y108.6955 Z-2.5333 I-0.0125 J0.0
G2 Y108.7172 Z-2.5667 I0.0062 J0.0108
G2 X19.6424 Y108.7063 Z-2.6 I0.0063 J-0.0108
G2 X19.6237 Y108.6955 Z-2.6333 I-0.0125 J0.0
G2 Y108.7172 Z-2.6667 I0.0062 J0.0108
G2 X19.6424 Y108.7063 Z-2.7 I0.0063 J-0.0108
G2 X19.6237 Y108.6955 Z-2.7333 I-0.0125 J0.0
G2 Y108.7172 Z-2.7667 I0.0062 J0.0108
G2 X19.6424 Y108.7063 Z-2.8 I0.0063 J-0.0108
G2 X19.6237 Y108.6955 Z-2.8333 I-0.0125 J0.0
G2 Y108.7172 Z-2.8667 I0.0062 J0.0108
G2 X19.6424 Y108.7063 Z-2.9 I0.0063 J-0.0108
G2 X19.6237 Y108.6955 Z-2.9333 I-0.0125 J0.0
G2 Y108.7172 Z-2.9667 I0.0062 J0.0108
G2 X19.6424 Y108.7063 Z-3.0 I0.0063 J-0.0108
G2 X19.6237 Y108.6955 Z-3.0333 I-0.0125 J0.0
G2 Y108.7172 Z-3.0667 I0.0062 J0.0108
G2 X19.6424 Y108.7063 Z-3.1 I0.0063 J-0.0108
G2 X19.6237 Y108.6955 Z-3.1333 I-0.0125 J0.0
G2 Y108.7172 Z-3.1667 I0.0062 J0.0108
G2 X19.6424 Y108.7063 Z-3.2 I0.0063 J-0.0108
G2 X19.6237 Y108.6955 I-0.0125 J0.0
G2 Y108.7172 I0.0063 J0.0108
G2 X19.6424 Y108.7063 I0.0062 J-0.0108
G0 Z3.0
G0 X24.445 Y124.9816
G1 F1000.0 Z0.0
G2 F2000.0 X24.4262 Y124.9707 Z-0.0333 I-0.0125 J0.0
G2 Y124.9924 Z-0.0667 I0.0062 J0.0108
G2 X24.445 Y124.9816 Z-0.1 I0.0063 J-0.0108
G2 X24.4262 Y124.9707 Z-0.1333 I-0.0125 J0.0
G2 Y124.9924 Z-0.1667 I0.0062 J0.0108
G2 X24.445 Y124.9816 Z-0.2 I0.0063 J-0.0108
G2 X24.4262 Y124.9707 Z-0.2333 I-0.0125 J0.0
G2 Y124.9924 Z-0.2667 I0.0062 J0.0108
G2 X24.445 Y124.9816 Z-0.3 I0.0063 J-0.0108
G2 X24.4262 Y124.9707 Z-0.3333 I-0.0125 J0.0
G2 Y124.9924 Z-0.3667 I0.0062 J0.0108
G2 X24.445 Y124.9816 Z-0.4 I0.0063 J-0.0108
G2 X24.4262 Y124.9707 Z-0.4333 I-0.0125 J0.0
G2 Y124.9924 Z-0.4667 I0.0062 J0.0108
G2 X24.445 Y124.9816 Z-0.5 I0.0063 J-0.0108
G2 X24.4262 Y124.9707 Z-0.5333 I-0.0125 J0.0
G2 Y124.9924 Z-0.5667 I0.0062 J0.0108
G2 X24.445 Y124.9816 Z-0.6 I0.0063 J-0.0108
G2 X24.4262 Y124.9707 Z-0.6333 I-0.0125 J0.0
G2 Y124.9924 Z-0.6667 I0.0062 J0.0108
G2 X24.445 Y124.9816 Z-0.7 I0.0063 J-0.0108
G2 X24.4262 Y124.9707 Z-0.7333 I-0.0125 J0.0
G2 Y124.9924 Z-0.7667 I0.0062 J0.0108
G2 X24.445 Y124.9816 Z-0.8 I0.0063 J-0.0108
G2 X24.4262 Y124.9707 Z-0.8333 I-0.0125 J0.0
G2 Y124.9924 Z-0.8667 I0.0062 J0.0108
G2 X24.445 Y124.9816 Z-0.9 I0.0063 J-0.0108
G2 X24.4262 Y124.9707 Z-0.9333 I-0.0125 J0.0
G2 Y124.9924 Z-0.9667 I0.0062 J0.0108
G2 X24.445 Y124.9816 Z-1.0 I0.0063 J-0.0108
G2 X24.4262 Y124.9707 Z-1.0333 I-0.0125 J0.0
G2 Y124.9924 Z-1.0667 I0.0062 J0.0108
G2 X24.445 Y124.9816 Z-1.1 I0.0063 J-0.0108
G2 X24.4262 Y124.9707 Z-1.1333 I-0.0125 J0.0
G2 Y124.9924 Z-1.1667 I0.0062 J0.0108
G2 X24.445 Y124.9816 Z-1.2 I0.0063 J-0.0108
G2 X24.4262 Y124.9707 Z-1.2333 I-0.0125 J0.0
G2 Y124.9924 Z-1.2667 I0.0062 J0.0108
G2 X24.445 Y124.9816 Z-1.3 I0.0063 J-0.0108
G2 X24.4262 Y124.9707 Z-1.3333 I-0.0125 J0.0
G2 Y124.9924 Z-1.3667 I0.0062 J0.0108
G2 X24.445 Y124.9816 Z-1.4 I0.0063 J-0.0108
G2 X24.4262 Y124.9707 Z-1.4333 I-0.0125 J0.0
G2 Y124.9924 Z-1.4667 I0.0062 J0.0108
G2 X24.445 Y124.9816 Z-1.5 I0.0063 J-0.0108
G2 X24.4262 Y124.9707 Z-1.5333 I-0.0125 J0.0
G2 Y124.9924 Z-1.5667 I0.0062 J0.0108
G2 X24.445 Y124.9816 Z-1.6 I0.0063 J-0.0108
G2 X24.4262 Y124.9707 Z-1.6333 I-0.0125 J0.0
G2 Y124.9924 Z-1.6667 I0.0062 J0.0108
G2 X24.445 Y124.9816 Z-1.7 I0.0063 J-0.0108
G2 X24.4262 Y124.9707 Z-1.7333 I-0.0125 J0.0
G2 Y124.9924 Z-1.7667 I0.0062 J0.0108
G2 X24.445 Y124.9816 Z-1.8 I0.0063 J-0.0108
G2 X24.4262 Y124.9707 Z-1.8333 I-0.0125 J0.0
G2 Y124.9924 Z-1.8667 I0.0062 J0.0108
G2 X24.445 Y124.9816 Z-1.9 I0.0063 J-0.0108
G2 X24.4262 Y124.9707 Z-1.9333 I-0.0125 J0.0
G2 Y124.9924 Z-1.9667 I0.0062 J0.0108
G2 X24.445 Y124.9816 Z-2.0 I0.0063 J-0.0108
G2 X24.4262 Y124.9707 Z-2.0333 I-0.0125 J0.0
G2 Y124.9924 Z-2.0667 I0.0062 J0.0108
G2 X24.445 Y124.9816 Z-2.1 I0.0063 J-0.0108
G2 X24.4262 Y124.9707 Z-2.1333 I-0.0125 J0.0
G2 Y124.9924 Z-2.1667 I0.0062 J0.0108
G2 X24.445 Y124.9816 Z-2.2 I0.0063 J-0.0108
G2 X24.4262 Y124.9707 Z-2.2333 I-0.0125 J0.0
G2 Y124.9924 Z-2.2667 I0.0062 J0.0108
G2 X24.445 Y124.9816 Z-2.3 I0.0063 J-0.0108
G2 X24.4262 Y124.9707 Z-2.3333 I-0.0125 J0.0
G2 Y124.9924 Z-2.3667 I0.0062 J0.0108
G2 X24.445 Y124.9816 Z-2.4 I0.0063 J-0.0108
G2 X24.4262 Y124.9707 Z-2.4333 I-0.0125 J0.0
G2 Y124.9924 Z-2.4667 I0.0062 J0.0108
G2 X24.445 Y124.9816 Z-2.5 I0.0063 J-0.0108
G2 X24.4262 Y124.9707 Z-2.5333 I-0.0125 J0.0
G2 Y124.9924 Z-2.5667 I0.0062 J0.0108
G2 X24.445 Y124.9816 Z-2.6 I0.0063 J-0.0108
G2 X24.4262 Y124.9707 Z-2.6333 I-0.0125 J0.0
G2 Y124.9924 Z-2.6667 I0.0062 J0.0108
G2 X24.445 Y124.9816 Z-2.7 I0.0063 J-0.0108
G2 X24.4262 Y124.9707 Z-2.7333 I-0.0125 J0.0
G2 Y124.9924 Z-2.7667 I0.0062 J0.0108
G2 X24.445 Y124.9816 Z-2.8 I0.0063 J-0.0108
G2 X24.4262 Y124.9707 Z-2.8333 I-0.0125 J0.0
G2 Y124.9924 Z-2.8667 I0.0062 J0.0108
G2 X24.445 Y124.9816 Z-2.9 I0.0063 J-0.0108
G2 X24.4262 Y124.9707 Z-2.9333 I-0.0125 J0.0
G2 Y124.9924 Z-2.9667 I0.0062 J0.0108
G2 X24.445 Y124.9816 Z-3.0 I0.0063 J-0.0108
G2 X24.4262 Y124.9707 Z-3.0333 I-0.0125 J0.0
G2 Y124.9924 Z-3.0667 I0.0062 J0.0108
G2 X24.445 Y124.9816 Z-3.1 I0.0063 J-0.0108
G2 X24.4262 Y124.9707 Z-3.1333 I-0.0125 J0.0
G2 Y124.9924 Z-3.1667 I0.0062 J0.0108
G2 X24.445 Y124.9816 Z-3.2 I0.0063 J-0.0108
G2 X24.4262 Y124.9707 I-0.0125 J0.0
G2 Y124.9924 I0.0063 J0.0108
G2 X24.445 Y124.9816 I0.0062 J-0.0108
( Profile1 )
S1000
G0 Z3.0
G0 X15.4943 Y-1.5028
G1 F1000.0 Z-0.1
G1 F2000.0 X0.1926
G2 X-1.3949 Y0.0847 I0.0 J1.5875
G1 Y128.1827
G2 X0.1926 Y129.7702 I1.5875 J0.0
G1 X42.5649
G2 X44.1524 Y128.1827 I0.0 J-1.5875
G1 Y0.0847
G2 X42.5649 Y-1.5028 I-1.5875 J0.0
G1 X15.4943
G1 F1000.0 Z-0.2
G1 F2000.0 X0.1926
G2 X-1.3949 Y0.0847 I0.0 J1.5875
G1 Y128.1827
G2 X0.1926 Y129.7702 I1.5875 J0.0
G1 X42.5649
G2 X44.1524 Y128.1827 I0.0 J-1.5875
G1 Y0.0847
G2 X42.5649 Y-1.5028 I-1.5875 J0.0
G1 X15.4943
G1 F1000.0 Z-0.3
G1 F2000.0 X0.1926
G2 X-1.3949 Y0.0847 I0.0 J1.5875
G1 Y128.1827
G2 X0.1926 Y129.7702 I1.5875 J0.0
G1 X42.5649
G2 X44.1524 Y128.1827 I0.0 J-1.5875
G1 Y0.0847
G2 X42.5649 Y-1.5028 I-1.5875 J0.0
G1 X15.4943
G1 F1000.0 Z-0.4
G1 F2000.0 X0.1926
G2 X-1.3949 Y0.0847 I0.0 J1.5875
G1 Y128.1827
G2 X0.1926 Y129.7702 I1.5875 J0.0
G1 X42.5649
G2 X44.1524 Y128.1827 I0.0 J-1.5875
G1 Y0.0847
G2 X42.5649 Y-1.5028 I-1.5875 J0.0
G1 X15.4943
G1 F1000.0 Z-0.5
G1 F2000.0 X0.1926
G2 X-1.3949 Y0.0847 I0.0 J1.5875
G1 Y128.1827
G2 X0.1926 Y129.7702 I1.5875 J0.0
G1 X42.5649
G2 X44.1524 Y128.1827 I0.0 J-1.5875
G1 Y0.0847
G2 X42.5649 Y-1.5028 I-1.5875 J0.0
G1 X15.4943
G1 F1000.0 Z-0.6
G1 F2000.0 X0.1926
G2 X-1.3949 Y0.0847 I0.0 J1.5875
G1 Y128.1827
G2 X0.1926 Y129.7702 I1.5875 J0.0
G1 X42.5649
G2 X44.1524 Y128.1827 I0.0 J-1.5875
G1 Y0.0847
G2 X42.5649 Y-1.5028 I-1.5875 J0.0
G1 X15.4943
G1 F1000.0 Z-0.7
G1 F2000.0 X0.1926
G2 X-1.3949 Y0.0847 I0.0 J1.5875
G1 Y128.1827
G2 X0.1926 Y129.7702 I1.5875 J0.0
G1 X42.5649
G2 X44.1524 Y128.1827 I0.0 J-1.5875
G1 Y0.0847
G2 X42.5649 Y-1.5028 I-1.5875 J0.0
G1 X15.4943
G1 F1000.0 Z-0.8
G1 F2000.0 X0.1926
G2 X-1.3949 Y0.0847 I0.0 J1.5875
G1 Y26.7257
G1 Y29.3132 Z-0.7
G1 Y31.9007 Z-0.8
G1 Y115.7863
G1 Y118.3738 Z-0.7
G1 Y120.9613 Z-0.8
G1 Y128.1827
G2 X0.1926 Y129.7702 I1.5875 J0.0
G1 X42.5649
G2 X44.1524 Y128.1827 I0.0 J-1.5875
G1 Y93.8908
G1 Y91.3033 Z-0.7
G1 Y88.7158 Z-0.8
G1 Y14.5539
G1 Y11.9664 Z-0.7
G1 Y9.3789 Z-0.8
G1 Y0.0847
G2 X42.5649 Y-1.5028 I-1.5875 J0.0
G1 X15.4943
G1 F1000.0 Z-0.9
G1 F2000.0 X0.1926
G2 X-1.3949 Y0.0847 I0.0 J1.5875
G1 Y26.7257
G1 Y29.3132 Z-0.7
G1 Y31.9007 Z-0.9
G1 Y115.7863
G1 Y118.3738 Z-0.7
G1 Y120.9613 Z-0.9
G1 Y128.1827
G2 X0.1926 Y129.7702 I1.5875 J0.0
G1 X42.5649
G2 X44.1524 Y128.1827 I0.0 J-1.5875
G1 Y93.8908
G1 Y91.3033 Z-0.7
G1 Y88.7158 Z-0.9
G1 Y14.5539
G1 Y11.9664 Z-0.7
G1 Y9.3789 Z-0.9
G1 Y0.0847
G2 X42.5649 Y-1.5028 I-1.5875 J0.0
G1 X15.4943
G1 F1000.0 Z-1.0
G1 F2000.0 X0.1926
G2 X-1.3949 Y0.0847 I0.0 J1.5875
G1 Y26.7257
G1 Y29.3132 Z-0.7
G1 Y31.9007 Z-1.0
G1 Y115.7863
G1 Y118.3738 Z-0.7
G1 Y120.9613 Z-1.0
G1 Y128.1827
G2 X0.1926 Y129.7702 I1.5875 J0.0
G1 X42.5649
G2 X44.1524 Y128.1827 I0.0 J-1.5875
G1 Y93.8908
G1 Y91.3033 Z-0.7
G1 Y88.7158 Z-1.0
G1 Y14.5539
G1 Y11.9664 Z-0.7
G1 Y9.3789 Z-1.0
G1 Y0.0847
G2 X42.5649 Y-1.5028 I-1.5875 J0.0
G1 X15.4943
G1 F1000.0 Z-1.1
G1 F2000.0 X0.1926
G2 X-1.3949 Y0.0847 I0.0 J1.5875
G1 Y26.7257
G1 Y29.3132 Z-0.7
G1 Y31.9007 Z-1.1
G1 Y115.7863
G1 Y118.3738 Z-0.7
G1 Y120.9613 Z-1.1
G1 Y128.1827
G2 X0.1926 Y129.7702 I1.5875 J0.0
G1 X42.5649
G2 X44.1524 Y128.1827 I0.0 J-1.5875
G1 Y93.8908
G1 Y91.3033 Z-0.7
G1 Y88.7158 Z-1.1
G1 Y14.5539
G1 Y11.9664 Z-0.7
G1 Y9.3789 Z-1.1
G1 Y0.0847
G2 X42.5649 Y-1.5028 I-1.5875 J0.0
G1 X15.4943
G1 F1000.0 Z-1.2
G1 F2000.0 X0.1926
G2 X-1.3949 Y0.0847 I0.0 J1.5875
G1 Y26.7257
G1 Y29.3132 Z-0.7
G1 Y31.9007 Z-1.2
G1 Y115.7863
G1 Y118.3738 Z-0.7
G1 Y120.9613 Z-1.2
G1 Y128.1827
G2 X0.1926 Y129.7702 I1.5875 J0.0
G1 X42.5649
G2 X44.1524 Y128.1827 I0.0 J-1.5875
G1 Y93.8908
G1 Y91.3033 Z-0.7
G1 Y88.7158 Z-1.2
G1 Y14.5539
G1 Y11.9664 Z-0.7
G1 Y9.3789 Z-1.2
G1 Y0.0847
G2 X42.5649 Y-1.5028 I-1.5875 J0.0
G1 X15.4943
G1 F1000.0 Z-1.3
G1 F2000.0 X0.1926
G2 X-1.3949 Y0.0847 I0.0 J1.5875
G1 Y26.7257
G1 Y29.3132 Z-0.7
G1 Y31.9007 Z-1.3
G1 Y115.7863
G1 Y118.3738 Z-0.7
G1 Y120.9613 Z-1.3
G1 Y128.1827
G2 X0.1926 Y129.7702 I1.5875 J0.0
G1 X42.5649
G2 X44.1524 Y128.1827 I0.0 J-1.5875
G1 Y93.8908
G1 Y91.3033 Z-0.7
G1 Y88.7158 Z-1.3
G1 Y14.5539
G1 Y11.9664 Z-0.7
G1 Y9.3789 Z-1.3
G1 Y0.0847
G2 X42.5649 Y-1.5028 I-1.5875 J0.0
G1 X15.4943
G1 F1000.0 Z-1.4
G1 F2000.0 X0.1926
G2 X-1.3949 Y0.0847 I0.0 J1.5875
G1 Y26.7257
G1 Y29.3132 Z-0.7
G1 Y31.9007 Z-1.4
G1 Y115.7863
G1 Y118.3738 Z-0.7
G1 Y120.9613 Z-1.4
G1 Y128.1827
G2 X0.1926 Y129.7702 I1.5875 J0.0
G1 X42.5649
G2 X44.1524 Y128.1827 I0.0 J-1.5875
G1 Y93.8908
G1 Y91.3033 Z-0.7
G1 Y88.7158 Z-1.4
G1 Y14.5539
G1 Y11.9664 Z-0.7
G1 Y9.3789 Z-1.4
G1 Y0.0847
G2 X42.5649 Y-1.5028 I-1.5875 J0.0
G1 X15.4943
G1 F1000.0 Z-1.5
G1 F2000.0 X0.1926
G2 X-1.3949 Y0.0847 I0.0 J1.5875
G1 Y26.7257
G1 Y29.3132 Z-0.7
G1 Y31.9007 Z-1.5
G1 Y115.7863
G1 Y118.3738 Z-0.7
G1 Y120.9613 Z-1.5
G1 Y128.1827
G2 X0.1926 Y129.7702 I1.5875 J0.0
G1 X42.5649
G2 X44.1524 Y128.1827 I0.0 J-1.5875
G1 Y93.8908
G1 Y91.3033 Z-0.7
G1 Y88.7158 Z-1.5
G1 Y14.5539
G1 Y11.9664 Z-0.7
G1 Y9.3789 Z-1.5
G1 Y0.0847
G2 X42.5649 Y-1.5028 I-1.5875 J0.0
G1 X15.4943
G1 F1000.0 Z-1.6
G1 F2000.0 X0.1926
G2 X-1.3949 Y0.0847 I0.0 J1.5875
G1 Y26.7257
G1 Y29.3132 Z-0.7
G1 Y31.9007 Z-1.6
G1 Y115.7863
G1 Y118.3738 Z-0.7
G1 Y120.9613 Z-1.6
G1 Y128.1827
G2 X0.1926 Y129.7702 I1.5875 J0.0
G1 X42.5649
G2 X44.1524 Y128.1827 I0.0 J-1.5875
G1 Y93.8908
G1 Y91.3033 Z-0.7
G1 Y88.7158 Z-1.6
G1 Y14.5539
G1 Y11.9664 Z-0.7
G1 Y9.3789 Z-1.6
G1 Y0.0847
G2 X42.5649 Y-1.5028 I-1.5875 J0.0
G1 X15.4943
G1 F1000.0 Z-1.7
G1 F2000.0 X0.1926
G2 X-1.3949 Y0.0847 I0.0 J1.5875
G1 Y26.7257
G1 Y29.3132 Z-0.7
G1 Y31.9007 Z-1.7
G1 Y115.7863
G1 Y118.3738 Z-0.7
G1 Y120.9613 Z-1.7
G1 Y128.1827
G2 X0.1926 Y129.7702 I1.5875 J0.0
G1 X42.5649
G2 X44.1524 Y128.1827 I0.0 J-1.5875
G1 Y93.8908
G1 Y91.3033 Z-0.7
G1 Y88.7158 Z-1.7
G1 Y14.5539
G1 Y11.9664 Z-0.7
G1 Y9.3789 Z-1.7
G1 Y0.0847
G2 X42.5649 Y-1.5028 I-1.5875 J0.0
G1 X15.4943
G1 F1000.0 Z-1.8
G1 F2000.0 X0.1926
G2 X-1.3949 Y0.0847 I0.0 J1.5875
G1 Y26.7257
G1 Y29.3132 Z-0.7
G1 Y31.9007 Z-1.8
G1 Y115.7863
G1 Y118.3738 Z-0.7
G1 Y120.9613 Z-1.8
G1 Y128.1827
G2 X0.1926 Y129.7702 I1.5875 J0.0
G1 X42.5649
G2 X44.1524 Y128.1827 I0.0 J-1.5875
G1 Y93.8908
G1 Y91.3033 Z-0.7
G1 Y88.7158 Z-1.8
G1 Y14.5539
G1 Y11.9664 Z-0.7
G1 Y9.3789 Z-1.8
G1 Y0.0847
G2 X42.5649 Y-1.5028 I-1.5875 J0.0
G1 X15.4943
G1 F1000.0 Z-1.9
G1 F2000.0 X0.1926
G2 X-1.3949 Y0.0847 I0.0 J1.5875
G1 Y26.7257
G1 Y29.3132 Z-0.7
G1 Y31.9007 Z-1.9
G1 Y115.7863
G1 Y118.3738 Z-0.7
G1 Y120.9613 Z-1.9
G1 Y128.1827
G2 X0.1926 Y129.7702 I1.5875 J0.0
G1 X42.5649
G2 X44.1524 Y128.1827 I0.0 J-1.5875
G1 Y93.8908
G1 Y91.3033 Z-0.7
G1 Y88.7158 Z-1.9
G1 Y14.5539
G1 Y11.9664 Z-0.7
G1 Y9.3789 Z-1.9
G1 Y0.0847
G2 X42.5649 Y-1.5028 I-1.5875 J0.0
G1 X15.4943
G1 F1000.0 Z-2.0
G1 F2000.0 X0.1926
G2 X-1.3949 Y0.0847 I0.0 J1.5875
G1 Y26.7257
G1 Y29.3132 Z-0.7
G1 Y31.9007 Z-2.0
G1 Y115.7863
G1 Y118.3738 Z-0.7
G1 Y120.9613 Z-2.0
G1 Y128.1827
G2 X0.1926 Y129.7702 I1.5875 J0.0
G1 X42.5649
G2 X44.1524 Y128.1827 I0.0 J-1.5875
G1 Y93.8908
G1 Y91.3033 Z-0.7
G1 Y88.7158 Z-2.0
G1 Y14.5539
G1 Y11.9664 Z-0.7
G1 Y9.3789 Z-2.0
G1 Y0.0847
G2 X42.5649 Y-1.5028 I-1.5875 J0.0
G1 X15.4943
G1 F1000.0 Z-2.1
G1 F2000.0 X0.1926
G2 X-1.3949 Y0.0847 I0.0 J1.5875
G1 Y26.7257
G1 Y29.3132 Z-0.7
G1 Y31.9007 Z-2.1
G1 Y115.7863
G1 Y118.3738 Z-0.7
G1 Y120.9613 Z-2.1
G1 Y128.1827
G2 X0.1926 Y129.7702 I1.5875 J0.0
G1 X42.5649
G2 X44.1524 Y128.1827 I0.0 J-1.5875
G1 Y93.8908
G1 Y91.3033 Z-0.7
G1 Y88.7158 Z-2.1
G1 Y14.5539
G1 Y11.9664 Z-0.7
G1 Y9.3789 Z-2.1
G1 Y0.0847
G2 X42.5649 Y-1.5028 I-1.5875 J0.0
G1 X15.4943
G1 F1000.0 Z-2.2
G1 F2000.0 X0.1926
G2 X-1.3949 Y0.0847 I0.0 J1.5875
G1 Y26.7257
G1 Y29.3132 Z-0.7
G1 Y31.9007 Z-2.2
G1 Y115.7863
G1 Y118.3738 Z-0.7
G1 Y120.9613 Z-2.2
G1 Y128.1827
G2 X0.1926 Y129.7702 I1.5875 J0.0
G1 X42.5649
G2 X44.1524 Y128.1827 I0.0 J-1.5875
G1 Y93.8908
G1 Y91.3033 Z-0.7
G1 Y88.7158 Z-2.2
G1 Y14.5539
G1 Y11.9664 Z-0.7
G1 Y9.3789 Z-2.2
G1 Y0.0847
G2 X42.5649 Y-1.5028 I-1.5875 J0.0
G1 X15.4943
G1 F1000.0 Z-2.3
G1 F2000.0 X0.1926
G2 X-1.3949 Y0.0847 I0.0 J1.5875
G1 Y26.7257
G1 Y29.3132 Z-0.7
G1 Y31.9007 Z-2.3
G1 Y115.7863
G1 Y118.3738 Z-0.7
G1 Y120.9613 Z-2.3
G1 Y128.1827
G2 X0.1926 Y129.7702 I1.5875 J0.0
G1 X42.5649
G2 X44.1524 Y128.1827 I0.0 J-1.5875
G1 Y93.8908
G1 Y91.3033 Z-0.7
G1 Y88.7158 Z-2.3
G1 Y14.5539
G1 Y11.9664 Z-0.7
G1 Y9.3789 Z-2.3
G1 Y0.0847
G2 X42.5649 Y-1.5028 I-1.5875 J0.0
G1 X15.4943
G1 F1000.0 Z-2.4
G1 F2000.0 X0.1926
G2 X-1.3949 Y0.0847 I0.0 J1.5875
G1 Y26.7257
G1 Y29.3132 Z-0.7
G1 Y31.9007 Z-2.4
G1 Y115.7863
G1 Y118.3738 Z-0.7
G1 Y120.9613 Z-2.4
G1 Y128.1827
G2 X0.1926 Y129.7702 I1.5875 J0.0
G1 X42.5649
G2 X44.1524 Y128.1827 I0.0 J-1.5875
G1 Y93.8908
G1 Y91.3033 Z-0.7
G1 Y88.7158 Z-2.4
G1 Y14.5539
G1 Y11.9664 Z-0.7
G1 Y9.3789 Z-2.4
G1 Y0.0847
G2 X42.5649 Y-1.5028 I-1.5875 J0.0
G1 X15.4943
G1 F1000.0 Z-2.5
G1 F2000.0 X0.1926
G2 X-1.3949 Y0.0847 I0.0 J1.5875
G1 Y26.7257
G1 Y29.3132 Z-0.7
G1 Y31.9007 Z-2.5
G1 Y115.7863
G1 Y118.3738 Z-0.7
G1 Y120.9613 Z-2.5
G1 Y128.1827
G2 X0.1926 Y129.7702 I1.5875 J0.0
G1 X42.5649
G2 X44.1524 Y128.1827 I0.0 J-1.5875
G1 Y93.8908
G1 Y91.3033 Z-0.7
G1 Y88.7158 Z-2.5
G1 Y14.5539
G1 Y11.9664 Z-0.7
G1 Y9.3789 Z-2.5
G1 Y0.0847
G2 X42.5649 Y-1.5028 I-1.5875 J0.0
G1 X15.4943
G1 F1000.0 Z-2.6
G1 F2000.0 X0.1926
G2 X-1.3949 Y0.0847 I0.0 J1.5875
G1 Y26.7257
G1 Y29.3132 Z-0.7
G1 Y31.9007 Z-2.6
G1 Y115.7863
G1 Y118.3738 Z-0.7
G1 Y120.9613 Z-2.6
G1 Y128.1827
G2 X0.1926 Y129.7702 I1.5875 J0.0
G1 X42.5649
G2 X44.1524 Y128.1827 I0.0 J-1.5875
G1 Y93.8908
G1 Y91.3033 Z-0.7
G1 Y88.7158 Z-2.6
G1 Y14.5539
G1 Y11.9664 Z-0.7
G1 Y9.3789 Z-2.6
G1 Y0.0847
G2 X42.5649 Y-1.5028 I-1.5875 J0.0
G1 X15.4943
G1 F1000.0 Z-2.7
G1 F2000.0 X0.1926
G2 X-1.3949 Y0.0847 I0.0 J1.5875
G1 Y26.7257
G1 Y29.3132 Z-0.7
G1 Y31.9007 Z-2.7
G1 Y115.7863
G1 Y118.3738 Z-0.7
G1 Y120.9613 Z-2.7
G1 Y128.1827
G2 X0.1926 Y129.7702 I1.5875 J0.0
G1 X42.5649
G2 X44.1524 Y128.1827 I0.0 J-1.5875
G1 Y93.8908
G1 Y91.3033 Z-0.7
G1 Y88.7158 Z-2.7
G1 Y14.5539
G1 Y11.9664 Z-0.7
G1 Y9.3789 Z-2.7
G1 Y0.0847
G2 X42.5649 Y-1.5028 I-1.5875 J0.0
G1 X15.4943
G1 F1000.0 Z-2.8
G1 F2000.0 X0.1926
G2 X-1.3949 Y0.0847 I0.0 J1.5875
G1 Y26.7257
G1 Y29.3132 Z-0.7
G1 Y31.9007 Z-2.8
G1 Y115.7863
G1 Y118.3738 Z-0.7
G1 Y120.9613 Z-2.8
G1 Y128.1827
G2 X0.1926 Y129.7702 I1.5875 J0.0
G1 X42.5649
G2 X44.1524 Y128.1827 I0.0 J-1.5875
G1 Y93.8908
G1 Y91.3033 Z-0.7
G1 Y88.7158 Z-2.8
G1 Y14.5539
G1 Y11.9664 Z-0.7
G1 Y9.3789 Z-2.8
G1 Y0.0847
G2 X42.5649 Y-1.5028 I-1.5875 J0.0
G1 X15.4943
G1 F1000.0 Z-2.9
G1 F2000.0 X0.1926
G2 X-1.3949 Y0.0847 I0.0 J1.5875
G1 Y26.7257
G1 Y29.3132 Z-0.7
G1 Y31.9007 Z-2.9
G1 Y115.7863
G1 Y118.3738 Z-0.7
G1 Y120.9613 Z-2.9
G1 Y128.1827
G2 X0.1926 Y129.7702 I1.5875 J0.0
G1 X42.5649
G2 X44.1524 Y128.1827 I0.0 J-1.5875
G1 Y93.8908
G1 Y91.3033 Z-0.7
G1 Y88.7158 Z-2.9
G1 Y14.5539
G1 Y11.9664 Z-0.7
G1 Y9.3789 Z-2.9
G1 Y0.0847
G2 X42.5649 Y-1.5028 I-1.5875 J0.0
G1 X15.4943
G1 F1000.0 Z-3.0
G1 F2000.0 X0.1926
G2 X-1.3949 Y0.0847 I0.0 J1.5875
G1 Y26.7257
G1 Y29.3132 Z-0.7
G1 Y31.9007 Z-3.0
G1 Y115.7863
G1 Y118.3738 Z-0.7
G1 Y120.9613 Z-3.0
G1 Y128.1827
G2 X0.1926 Y129.7702 I1.5875 J0.0
G1 X42.5649
G2 X44.1524 Y128.1827 I0.0 J-1.5875
G1 Y93.8908
G1 Y91.3033 Z-0.7
G1 Y88.7158 Z-3.0
G1 Y14.5539
G1 Y11.9664 Z-0.7
G1 Y9.3789 Z-3.0
G1 Y0.0847
G2 X42.5649 Y-1.5028 I-1.5875 J0.0
G1 X15.4943
G1 F1000.0 Z-3.1
G1 F2000.0 X0.1926
G2 X-1.3949 Y0.0847 I0.0 J1.5875
G1 Y26.7257
G1 Y29.3132 Z-0.7
G1 Y31.9007 Z-3.1
G1 Y115.7863
G1 Y118.3738 Z-0.7
G1 Y120.9613 Z-3.1
G1 Y128.1827
G2 X0.1926 Y129.7702 I1.5875 J0.0
G1 X42.5649
G2 X44.1524 Y128.1827 I0.0 J-1.5875
G1 Y93.8908
G1 Y91.3033 Z-0.7
G1 Y88.7158 Z-3.1
G1 Y14.5539
G1 Y11.9664 Z-0.7
G1 Y9.3789 Z-3.1
G1 Y0.0847
G2 X42.5649 Y-1.5028 I-1.5875 J0.0
G1 X15.4943
G1 F1000.0 Z-3.2
G1 F2000.0 X0.1926
G2 X-1.3949 Y0.0847 I0.0 J1.5875
G1 Y26.7257
G1 Y29.3132 Z-0.7
G1 Y31.9007 Z-3.2
G1 Y115.7863
G1 Y118.3738 Z-0.7
G1 Y120.9613 Z-3.2
G1 Y128.1827
G2 X0.1926 Y129.7702 I1.5875 J0.0
G1 X42.5649
G2 X44.1524 Y128.1827 I0.0 J-1.5875
G1 Y93.8908
G1 Y91.3033 Z-0.7
G1 Y88.7158 Z-3.2
G1 Y14.5539
G1 Y11.9664 Z-0.7
G1 Y9.3789 Z-3.2
G1 Y0.0847
G2 X42.5649 Y-1.5028 I-1.5875 J0.0
G1 X15.4943
G0 Z3.0
M5
M30
